images/breadcrumbs.svg

<svg width="21" height="20" viewBox="0 0 21 20" fill="none" xmlns="http://www.w3.org/2000/svg">
<path d="M13.1117 9.46875L8.36167 5.21875C8.11167 4.96875 7.61167 4.96875 7.23667 5.21875C6.86167 5.46875 6.98667 5.96875 7.23667 6.21875L11.3617 9.96875L7.36167 13.7188C7.11167 13.9688 7.11167 14.4688 7.36167 14.7188C7.36167 14.8438 7.73667 14.9688 7.86167 14.9688C7.98667 14.9688 8.23667 14.8438 8.36167 14.7188L13.1117 10.4688C13.4867 10.2188 13.4867 9.71875 13.1117 9.46875Z" fill="black"/>
</svg>

<svg xmlns="http://www.w3.org/2000/svg" width="21" height="20" fill="none"><path fill="#000" d="M13.11 9.47 8.36 5.22c-.25-.25-.75-.25-1.12 0-.38.25-.25.75 0 1l4.12 3.75-4 3.75a.76.76 0 0 0 0 1c0 .12.38.25.5.25.13 0 .38-.13.5-.25l4.75-4.25a.59.59 0 0 0 0-1Z"/></svg>
